src/assets/icon/company/Skyhive.svg

<svg width="200" height="80" viewBox="0 0 200 80" fill="none" xmlns="http://www.w3.org/2000/svg">
<path d="M48.2433 60.9498C48.2126 60.9498 48.1815 60.9474 48.1512 60.9427H48.1503C48.0993 60.9347 48.0488 60.9205 48.0007 60.8993C48.0002 60.8993 48.0002 60.8993 47.9997 60.8988C47.9775 60.8889 47.9558 60.878 47.935 60.8658L30.304 50.682C30.1157 50.5734 30 50.3728 30 50.1552L30.0014 41.4721C30.0014 41.2223 30.1539 40.9981 30.3866 40.9065C30.6189 40.8149 30.8837 40.8744 31.0541 41.0571L37.5332 47.9903C37.5719 47.9709 37.6129 47.9558 37.6564 47.9445L52.683 44.1633L57.2639 29.5667C57.3645 29.2461 57.7058 29.0682 58.0263 29.1687C58.3468 29.2693 58.5248 29.6106 58.4242 29.9311L54.0671 43.8154L65.7351 40.8796C65.9168 40.8338 66.1094 40.8744 66.2572 40.9896C66.4049 41.1048 66.4913 41.2818 66.4913 41.4692L66.4899 50.1622C66.4899 50.3794 66.3738 50.5805 66.1859 50.6891L48.5506 60.8667C48.5242 60.8823 48.4968 60.8955 48.468 60.9068C48.4675 60.9068 48.4675 60.9068 48.467 60.9073C48.4189 60.9262 48.3684 60.9389 48.3174 60.9455C48.2929 60.9484 48.2678 60.9498 48.2433 60.9498ZM38.4711 48.9939L47.9756 59.1645L52.2563 45.5256L38.4711 48.9939ZM53.6399 45.1773L49.2908 59.0351L65.2739 49.811L65.2753 42.2495L53.6399 45.1773ZM31.2165 49.8049L45.0087 57.7714L31.2174 43.0138L31.2165 49.8049Z" fill="white"/>
<path d="M37.8053 49.1438C37.7369 49.1438 37.667 49.132 37.599 49.1075C37.2832 48.9932 37.1194 48.6449 37.2336 48.3291L47.6752 19.4167C47.6856 19.3865 47.6983 19.3572 47.7134 19.328C47.7214 19.3128 47.7299 19.2982 47.7389 19.284C47.814 19.1665 47.9235 19.0834 48.0467 19.0395C48.0472 19.0395 48.0476 19.039 48.0476 19.039C48.0679 19.032 48.0887 19.0258 48.1095 19.0206H48.1104C48.2487 18.9876 48.3984 19.0027 48.5324 19.073C48.5414 19.0778 48.5499 19.0825 48.5589 19.0877L66.1904 29.2715C66.3783 29.38 66.4944 29.5807 66.4944 29.7983L66.493 38.2302C66.493 38.479 66.341 38.7028 66.1097 38.7953C65.8788 38.8873 65.6145 38.8293 65.4431 38.6485L48.4881 20.7465L38.3774 48.7421C38.2882 48.9899 38.0546 49.1438 37.8053 49.1438ZM51.5687 22.2307L65.2769 36.7041L65.2784 30.149L51.5687 22.2307Z" fill="white"/>
<path d="M48.243 60.9493C48.1826 60.9493 48.1212 60.9403 48.0608 60.9215C47.7403 60.8209 47.5623 60.4796 47.6628 60.1591L57.2641 29.5667C57.3647 29.2461 57.706 29.0682 58.0265 29.1687C58.347 29.2693 58.525 29.6106 58.4244 29.9311L48.8232 60.5235C48.7415 60.7831 48.5017 60.9493 48.243 60.9493Z" fill="white"/>
<path d="M57.802 55.4303C57.6547 55.4303 57.5069 55.377 57.3903 55.2698L30.2 30.235C29.9532 30.0074 29.9371 29.6227 30.1646 29.3758C30.3922 29.1289 30.7769 29.1129 31.0238 29.3404L58.2141 54.3753C58.461 54.6028 58.477 54.9875 58.2495 55.2344C58.1296 55.3642 57.9658 55.4303 57.802 55.4303Z" fill="white"/>
<path d="M37.8053 49.1402C37.7369 49.1402 37.667 49.1284 37.599 49.1039C37.2832 48.9896 37.1194 48.6413 37.2336 48.3254L47.6794 19.4018C47.7937 19.0859 48.142 18.9221 48.4579 19.0364C48.7737 19.1506 48.9375 19.499 48.8232 19.8148L38.3774 48.7385C38.2882 48.9863 38.0546 49.1402 37.8053 49.1402Z" fill="white"/>
<path d="M48.2438 60.9473C48.0796 60.9473 47.9176 60.8807 47.7992 60.7542L30.1658 41.885C29.9363 41.6395 29.9496 41.2548 30.195 41.0253C30.4405 40.7959 30.8252 40.8091 31.0547 41.0546L48.3585 59.5708L57.1955 54.4711L57.2357 30.5777L30.7945 38.9478C30.61 39.0063 30.4079 38.9733 30.2517 38.8586C30.0954 38.7439 30.0029 38.5617 30.0029 38.3681L30.0043 29.7879C30.0043 29.5708 30.1204 29.3697 30.3083 29.2611L47.9469 19.0816C48.2377 18.9135 48.6097 19.0136 48.7777 19.3044C48.9458 19.5952 48.8457 19.9671 48.5549 20.1352L31.2203 30.1391L31.2189 37.5378L57.661 29.1672C57.846 29.1086 58.0476 29.1417 58.2043 29.2564C58.3611 29.3711 58.4531 29.5538 58.4526 29.7478L58.4106 54.8237C58.4101 55.0404 58.2945 55.241 58.1066 55.3496L48.5478 60.8661C48.453 60.9204 48.3482 60.9473 48.2438 60.9473Z" fill="white"/>
<path d="M47.9734 59.1601L47.6609 60.1552C47.5924 60.3728 47.6533 60.6004 47.7996 60.7552C47.8114 60.768 47.8242 60.7798 47.8369 60.7911C47.8393 60.7935 47.8417 60.7958 47.844 60.7977C47.8917 60.8388 47.945 60.8718 48.0012 60.8959C48.0125 60.9006 48.0248 60.9049 48.0366 60.9091C48.0442 60.9119 48.0517 60.9152 48.0593 60.9176C48.0857 60.9261 48.1126 60.9318 48.1391 60.936C48.1466 60.9374 48.1542 60.9384 48.1617 60.9393C48.1863 60.9426 48.2113 60.9445 48.2358 60.945C48.2377 60.945 48.2396 60.9455 48.2415 60.9455C48.2443 60.9455 48.2472 60.945 48.2505 60.945C48.2769 60.9445 48.3033 60.9426 48.3288 60.9389C48.3387 60.9374 48.3486 60.9351 48.3586 60.9332C48.3779 60.9294 48.3968 60.9252 48.4157 60.9195C48.4261 60.9162 48.4365 60.9129 48.4468 60.9091C48.4648 60.9025 48.4818 60.8954 48.4988 60.8874C48.5087 60.8827 48.5191 60.878 48.529 60.8728C48.664 60.8001 48.7721 60.6778 48.8217 60.5201L49.289 59.0312L47.9734 59.1601Z" fill="white"/>
<path d="M56.7832 54.7092L57.3922 55.2696C57.5092 55.3772 57.6565 55.4301 57.8038 55.4301C57.9062 55.4301 58.0082 55.4046 58.0993 55.3536L58.1017 55.3522C58.1064 55.3493 58.1111 55.346 58.1154 55.3432C58.1328 55.3328 58.1498 55.321 58.1663 55.3092C58.1725 55.3045 58.1786 55.2993 58.1848 55.2946C58.1975 55.2842 58.2098 55.2734 58.222 55.262C58.2287 55.2559 58.2348 55.2497 58.2414 55.2431C58.2541 55.2299 58.2664 55.2158 58.2778 55.2016C58.2811 55.1973 58.2848 55.1936 58.2881 55.1893C58.3028 55.17 58.316 55.1501 58.3283 55.1294C58.3306 55.1256 58.332 55.1218 58.3344 55.118C58.3443 55.1006 58.3533 55.0826 58.3608 55.0642L58.3679 55.0472C58.3755 55.0283 58.3821 55.0095 58.3873 54.9901C58.3882 54.9859 58.3901 54.9821 58.391 54.9778C58.3972 54.9547 58.4019 54.9306 58.4057 54.9066C58.4061 54.9023 58.4066 54.8976 58.4071 54.8933C58.4095 54.8735 58.4109 54.8537 58.4113 54.8334C58.4146 54.6653 58.349 54.4973 58.2159 54.3745L57.1981 53.4375L56.7832 54.7092Z" fill="white"/>
<path d="M84.7482 34.8918C84.5641 34.677 84.3181 34.4697 84.0113 34.2696C83.704 34.0704 83.3584 33.8896 82.9746 33.7281C82.5904 33.5667 82.1716 33.4364 81.7189 33.3363C81.2658 33.2367 80.7937 33.1867 80.3023 33.1867C79.0272 33.1867 78.0945 33.4251 77.503 33.9009C76.9115 34.3772 76.616 35.0296 76.616 35.859C76.616 36.3046 76.7 36.6733 76.8695 36.9646C77.0385 37.2563 77.3033 37.506 77.6644 37.7133C78.0251 37.921 78.4745 38.1013 79.0121 38.2547C79.5493 38.4086 80.1871 38.5696 80.9245 38.7386C81.769 38.9227 82.5332 39.1342 83.2168 39.3721C83.8999 39.6105 84.4838 39.906 84.9677 40.2591C85.4515 40.6127 85.8202 41.0427 86.0732 41.5492C86.3267 42.0558 86.4532 42.6784 86.4532 43.4153C86.4532 44.1985 86.2998 44.8782 85.9925 45.4541C85.6852 46.0301 85.267 46.5064 84.7368 46.8826C84.2072 47.2593 83.5808 47.5355 82.8594 47.712C82.1372 47.8886 81.354 47.9768 80.5095 47.9768C79.2501 47.9768 78.0562 47.7809 76.927 47.3896C75.7983 46.9983 74.773 46.4261 73.8516 45.6732L74.8424 43.9223C75.0879 44.1838 75.407 44.4449 75.7988 44.7055C76.1902 44.967 76.6358 45.2006 77.1348 45.4084C77.6337 45.6156 78.1714 45.7851 78.7473 45.9149C79.3232 46.0456 79.926 46.1108 80.5558 46.1108C81.7227 46.1108 82.6291 45.9031 83.2744 45.4886C83.9192 45.0741 84.2416 44.452 84.2416 43.6225C84.2416 43.1618 84.1378 42.7738 83.9305 42.4589C83.7233 42.144 83.4198 41.8712 83.0204 41.6413C82.6211 41.4109 82.1254 41.2075 81.5344 41.0309C80.9429 40.8544 80.2707 40.6736 79.5187 40.4895C78.6893 40.2903 77.9599 40.0745 77.3302 39.8446C76.7 39.6143 76.1741 39.3376 75.7521 39.0152C75.3296 38.6928 75.0109 38.301 74.7962 37.8403C74.5809 37.3795 74.4737 36.8267 74.4737 36.1814C74.4737 35.3983 74.6191 34.7072 74.9113 34.1081C75.2026 33.5091 75.61 33.0026 76.1321 32.5876C76.6542 32.1727 77.2759 31.8621 77.9982 31.6548C78.7199 31.4471 79.5031 31.3438 80.3481 31.3438C81.4536 31.3438 82.4521 31.5127 83.3428 31.8503C84.2336 32.1883 85.0243 32.6414 85.7159 33.2093L84.7482 34.8918Z" fill="white"/>
<path d="M99.1696 47.8177L95.0226 41.9433L92.7189 44.1087V47.8177H90.6914V31H92.7189V42.058L98.893 35.815H101.128L96.3358 40.791L101.358 47.8177H99.1696Z" fill="white"/>
<path d="M105.504 51.0906C105.703 51.1213 105.903 51.1444 106.103 51.1595C106.302 51.1746 106.456 51.1826 106.564 51.1826C106.748 51.1826 106.913 51.1402 107.059 51.0561C107.205 50.9716 107.351 50.8064 107.497 50.5605C107.643 50.315 107.808 49.9728 107.992 49.5352C108.176 49.0976 108.407 48.5249 108.683 47.8187L103.592 35.793H105.688L109.789 45.9989L113.521 35.793H115.456L109.604 50.9749C109.389 51.5126 109.032 51.9847 108.533 52.3921C108.034 52.7985 107.347 53.0024 106.471 53.0024C106.333 53.0024 106.191 52.9944 106.045 52.9793C105.899 52.9637 105.719 52.9331 105.504 52.8873L105.504 51.0906Z" fill="white"/>
<path d="M132.365 31.4609V47.8179H130.292V40.3768H121.284V47.8179H119.211V31.4609H121.284V38.5338H130.292V31.4609H132.365Z" fill="white"/>
<path d="M137.803 33.534V31H139.83V33.534H137.803ZM137.803 47.8172V35.7914H139.83V47.8172H137.803Z" fill="white"/>
<path d="M148.425 47.8187L143.68 35.793H145.776L149.577 46.0447L153.401 35.793H155.336L150.591 47.8187H148.425Z" fill="white"/>
<path d="M163.628 48.0493C162.722 48.0493 161.893 47.8841 161.14 47.5536C160.388 47.2237 159.742 46.7743 159.205 46.2059C158.667 45.638 158.249 44.9734 157.949 44.2133C157.65 43.4533 157.5 42.6508 157.5 41.8058C157.5 40.9613 157.65 40.1626 157.949 39.4101C158.249 38.6576 158.671 37.9972 159.216 37.4289C159.761 36.861 160.41 36.4116 161.163 36.0811C161.916 35.7512 162.745 35.5859 163.651 35.5859C164.557 35.5859 165.383 35.7554 166.128 36.0925C166.873 36.4305 167.506 36.8799 168.028 37.4402C168.55 38.001 168.954 38.6539 169.238 39.3988C169.522 40.1437 169.664 40.9155 169.664 41.7138C169.664 41.8832 169.66 42.0362 169.653 42.1745C169.645 42.3128 169.633 42.4204 169.618 42.4969H159.643C159.688 43.096 159.827 43.6412 160.058 44.1326C160.288 44.6245 160.587 45.0465 160.956 45.3996C161.325 45.7532 161.743 46.0294 162.212 46.229C162.68 46.4287 163.175 46.5283 163.698 46.5283C164.066 46.5283 164.427 46.4788 164.781 46.3787C165.134 46.2791 165.464 46.1445 165.771 45.9755C166.079 45.8065 166.351 45.5993 166.589 45.3534C166.827 45.1079 167.007 44.8313 167.131 44.524L168.881 45.0078C168.682 45.4534 168.409 45.8604 168.063 46.2286C167.718 46.5972 167.318 46.9159 166.865 47.185C166.412 47.454 165.909 47.665 165.356 47.8185C164.803 47.9719 164.227 48.0493 163.628 48.0493ZM167.752 40.9995C167.706 40.4317 167.564 39.9053 167.326 39.4214C167.088 38.9376 166.788 38.5269 166.428 38.1889C166.066 37.8514 165.648 37.5865 165.172 37.3939C164.696 37.2023 164.189 37.106 163.651 37.106C163.114 37.106 162.607 37.2023 162.131 37.3939C161.655 37.5861 161.236 37.8547 160.875 38.2002C160.514 38.5458 160.222 38.9569 160 39.4328C159.777 39.9091 159.643 40.4312 159.596 40.9991H167.752V40.9995Z" fill="white"/>
</svg>

<svg width="200" height="80" fill="none" xmlns="http://www.w3.org/2000/svg"><path d="M48.243 60.95A.602.602 0 0 1 48 60.9v-.001a.655.655 0 0 1-.065-.033L30.304 50.682a.608.608 0 0 1-.304-.527l.001-8.683a.607.607 0 0 1 1.053-.415l6.48 6.933a.623.623 0 0 1 .122-.046l15.027-3.78 4.58-14.597a.608.608 0 1 1 1.161.364l-4.357 13.884 11.668-2.935a.608.608 0 0 1 .756.59l-.001 8.692a.609.609 0 0 1-.304.527L48.55 60.867a.573.573 0 0 1-.083.04h-.001a.631.631 0 0 1-.224.043Zm-9.772-11.956 9.505 10.17 4.28-13.638-13.785 3.468Zm15.169-3.817-4.35 13.858 15.984-9.224.001-7.562-11.635 2.928Zm-22.424 4.628L45.01 57.77 31.217 43.014v6.79Z" fill="#fff"/><path d="M37.805 49.144a.609.609 0 0 1-.571-.815l10.441-28.912a.66.66 0 0 1 .064-.133.605.605 0 0 1 .37-.263h.001a.604.604 0 0 1 .449.067L66.19 29.27c.188.109.304.31.304.527l-.001 8.432a.61.61 0 0 1-1.05.419L48.488 20.746l-10.11 27.995a.608.608 0 0 1-.573.402ZM51.57 22.23l13.708 14.473.001-6.555-13.71-7.918Z" fill="#fff"/><path d="M48.243 60.95a.608.608 0 0 1-.58-.79l9.601-30.593a.608.608 0 1 1 1.16.364l-9.6 30.592a.609.609 0 0 1-.581.426Z" fill="#fff"/><path d="M57.802 55.43a.607.607 0 0 1-.412-.16L30.2 30.235a.608.608 0 0 1 .824-.895l27.19 25.035a.608.608 0 0 1-.412 1.055Z" fill="#fff"/><path d="M37.805 49.14a.609.609 0 0 1-.571-.815l10.445-28.923a.608.608 0 1 1 1.144.413L38.377 48.739a.608.608 0 0 1-.572.401Z" fill="#fff"/><path d="M48.244 60.947a.608.608 0 0 1-.445-.193L30.166 41.885a.608.608 0 1 1 .889-.83L48.358 59.57l8.838-5.1.04-23.893-26.441 8.37a.608.608 0 0 1-.792-.58l.001-8.58c0-.217.116-.418.304-.527l17.639-10.18a.608.608 0 0 1 .608 1.054L31.22 30.14l-.001 7.399 26.442-8.37a.608.608 0 0 1 .792.58l-.042 25.076a.61.61 0 0 1-.304.526l-9.56 5.516a.611.611 0 0 1-.303.081Z" fill="#fff"/><path d="m47.973 59.16-.312.995a.608.608 0 0 0 .34.74c.012.006.024.01.036.014l.022.009a.531.531 0 0 0 .103.021c.024.004.05.005.074.006h.015a.631.631 0 0 0 .078-.006l.03-.006a.593.593 0 0 0 .14-.046l.03-.014a.606.606 0 0 0 .293-.353l.467-1.489-1.316.13ZM56.783 54.71l.61.56a.605.605 0 0 0 .706.084l.003-.002.013-.009a.75.75 0 0 0 .051-.034l.019-.014a.754.754 0 0 0 .037-.033l.02-.019a.62.62 0 0 0 .036-.041l.01-.013a.626.626 0 0 0 .04-.06c.003-.003.004-.007.006-.011a.462.462 0 0 0 .027-.054l.007-.017a.499.499 0 0 0 .02-.057l.003-.012a.696.696 0 0 0 .02-.145.606.606 0 0 0-.195-.459l-1.018-.937-.415 1.272ZM84.748 34.892a3.433 3.433 0 0 0-.737-.622 6.63 6.63 0 0 0-1.036-.542 7.318 7.318 0 0 0-1.256-.392 6.58 6.58 0 0 0-1.417-.15c-1.275 0-2.208.24-2.799.715-.591.476-.887 1.129-.887 1.958 0 .446.084.814.254 1.106.168.291.433.541.794.748.361.208.81.388 1.348.542.537.154 1.175.315 1.912.484.845.184 1.61.395 2.293.633.683.239 1.267.534 1.75.887.484.354.853.784 1.106 1.29.254.507.38 1.13.38 1.866 0 .784-.153 1.463-.46 2.04a4.084 4.084 0 0 1-1.256 1.428c-.53.376-1.156.652-1.878.829a9.878 9.878 0 0 1-2.35.265c-1.259 0-2.453-.196-3.582-.587a9.999 9.999 0 0 1-3.075-1.717l.99-1.75c.246.26.565.522.957.782a7.79 7.79 0 0 0 1.336.703 9.838 9.838 0 0 0 1.612.507c.576.13 1.179.196 1.809.196 1.167 0 2.073-.208 2.718-.622.645-.415.968-1.037.968-1.866 0-.461-.104-.85-.312-1.164-.207-.315-.51-.588-.91-.818-.399-.23-.895-.433-1.486-.61a42.214 42.214 0 0 0-2.015-.541c-.83-.2-1.56-.416-2.189-.645-.63-.23-1.156-.507-1.578-.83a3.124 3.124 0 0 1-.956-1.175c-.215-.46-.322-1.013-.322-1.659 0-.783.145-1.474.437-2.073a4.35 4.35 0 0 1 1.221-1.52c.522-.415 1.144-.726 1.866-.933a8.468 8.468 0 0 1 2.35-.311c1.106 0 2.104.169 2.995.506.89.338 1.681.791 2.373 1.36l-.968 1.682ZM99.17 47.818l-4.147-5.875-2.304 2.166v3.709H90.69V31h2.028v11.058l6.174-6.243h2.235l-4.792 4.976 5.022 7.027H99.17ZM105.504 51.09a7.765 7.765 0 0 0 1.06.093.974.974 0 0 0 .495-.127c.146-.084.292-.25.438-.495.146-.246.311-.588.495-1.026.184-.437.415-1.01.691-1.716l-5.091-12.026h2.096l4.101 10.206 3.732-10.206h1.935l-5.852 15.182c-.215.538-.572 1.01-1.071 1.417-.499.406-1.186.61-2.062.61a4.145 4.145 0 0 1-.967-.115v-1.796ZM132.365 31.46v16.358h-2.073v-7.441h-9.008v7.44h-2.073V31.462h2.073v7.073h9.008V31.46h2.073ZM137.803 33.534V31h2.027v2.534h-2.027Zm0 14.283V35.791h2.027v12.026h-2.027ZM148.425 47.819l-4.745-12.026h2.096l3.801 10.252 3.824-10.252h1.935l-4.745 12.026h-2.166ZM163.628 48.05c-.906 0-1.735-.166-2.488-.496a5.877 5.877 0 0 1-1.935-1.348 6.143 6.143 0 0 1-1.256-1.993 6.517 6.517 0 0 1-.449-2.407c0-.845.15-1.643.449-2.396.3-.752.722-1.413 1.267-1.981a6.019 6.019 0 0 1 1.947-1.348c.753-.33 1.582-.495 2.488-.495.906 0 1.732.17 2.477.507a5.885 5.885 0 0 1 1.9 1.347 5.96 5.96 0 0 1 1.21 1.959c.284.745.426 1.517.426 2.315 0 .17-.004.322-.011.46-.008.139-.02.246-.035.323h-9.975c.045.599.184 1.144.415 1.636a4.147 4.147 0 0 0 2.154 2.096c.468.2.963.3 1.486.3.368 0 .729-.05 1.083-.15.353-.1.683-.234.99-.404.308-.169.58-.376.818-.622.238-.245.418-.522.542-.829l1.75.484a4.388 4.388 0 0 1-.818 1.22 5.423 5.423 0 0 1-1.198.957 6.435 6.435 0 0 1-3.237.864Zm4.124-7.05a4.336 4.336 0 0 0-.426-1.579 4.235 4.235 0 0 0-.898-1.232 4.05 4.05 0 0 0-2.777-1.083c-.537 0-1.044.096-1.52.288a3.92 3.92 0 0 0-1.256.806 4.07 4.07 0 0 0-.875 1.233 4.546 4.546 0 0 0-.404 1.566h8.156Z" fill="#fff"/></svg>
